!!!COM: Palestrina, Giovanni Perluigi da
!!!OPR: Missa Confitebor tibi
!!!OMD: Kyrie
!!!OTL: Christe
**kern	**kern	**kern	**kern	**kern	**kern	**kern	**kern
*Ibass	*Itenor	*Icalto	*Icant	*Ibass	*Itenor	*Icalto	*Icant
!Bassus	!Tenor	!Altus	!Cantus	!Bassus	!Tenor	!Altus	!Cantus
*clefF4	*clefGv2	*clefG2	*clefG2	*clefF4	*clefGv2	*clefG2	*clefG2
*k[b-]	*k[b-]	*k[b-]	*k[b-]	*k[b-]	*k[b-]	*k[b-]	*k[b-]
*G:dor	*G:dor	*G:dor	*G:dor	*G:dor	*G:dor	*G:dor	*G:dor
*M4/2	*M4/2	*M4/2	*M4/2	*M4/2	*M4/2	*M4/2	*M4/2
=30	=30	=30	=30	=30	=30	=30	=30
0r	1.c	1r	0r	0r	0r	0r	0r
.	.	[1g	.	.	.	.	.
.	2c	.	.	.	.	.	.
=31	=31	=31	=31	=31	=31	=31	=31
1.c	2.c	2g]	1r	0r	0r	0r	0r
.	.	2g	.	.	.	.	.
.	4d	.	.	.	.	.	.
.	4e	2.g	[1cc	.	.	.	.
.	4d	.	.	.	.	.	.
2c	4e	.	.	.	.	.	.
.	4f	4f	.	.	.	.	.
=32	=32	=32	=32	=32	=32	=32	=32
2.c	1g	2e	2cc]	0r	0r	0r	0r
.	.	2e	2cc	.	.	.	.
4B-	.	.	.	.	.	.	.
2A	2a	2c	2.cc	.	.	.	.
2A	2e	[2cc	.	.	.	.	.
.	.	.	4b-	.	.	.	.
=33	=33	=33	=33	=33	=33	=33	=33
2F	2.f	2cc]	2a	0r	0r	0r	0r
1F	.	2cc	2a	.	.	.	.
.	4g	.	.	.	.	.	.
.	2a	2.cc	2f	.	.	.	.
2F	2A	.	[2ff	.	.	.	.
.	.	4b-	.	.	.	.	.
=34	=34	=34	=34	=34	=34	=34	=34
2.F	2c	1.a	2ff]	0r	0r	0r	0r
.	2c	.	2ff	.	.	.	.
4E	.	.	.	.	.	.	.
1D	2.d	.	2.ff	.	.	.	.
.	.	2f	.	.	.	.	.
.	4c	.	4ee	.	.	.	.
=35	=35	=35	=35	=35	=35	=35	=35
1G	1B-	2g	4dd	0r	1r	0r	0r
.	.	.	4cc	.	.	.	.
.	.	1b-	2b-	.	.	.	.
1F	1f	.	1cc	.	[1c	.	.
.	.	2a	.	.	.	.	.
=36	=36	=36	=36	=36	=36	=36	=36
[0C	2e	4g	2.cc	1r	2c]	1.g	0r
.	.	4f	.	.	.	.	.
.	2.g	4e	.	.	2c	.	.
.	.	4d	4dd	.	.	.	.
.	.	2c	4ee	[1c	2.c	.	.
.	4f	.	4dd	.	.	.	.
.	4e	[2g	4ee	.	.	2g	.
.	4d	.	4ff	.	4d	.	.
=37	=37	=37	=37	=37	=37	=37	=37
0C]	2.c	4g]	0gg	2c]	4e	2.g	1.cc
.	.	4f	.	.	4d	.	.
.	.	4e	.	2c	4e	.	.
.	4d	4d	.	.	4f	4f	.
.	1e	1c	.	2.c	2g	2e	.
.	.	.	.	.	2g	2e	2cc
.	.	.	.	4B-	.	.	.
=38	=38	=38	=38	=38	=38	=38	=38
0r	0r	0r	0r	2A	2c	2e	2.cc
.	.	.	.	2F	1f	1a	.
.	.	.	.	.	.	.	4b-
.	.	.	.	2F	.	.	2a
.	.	.	.	[2B-	2f	[2d	2f
=39	=39	=39	=39	=39	=39	=39	=39
0r	0r	0r	0r	2B-]	2.f	4d]	1.b-
.	.	.	.	.	.	4c	.
.	.	.	.	2B-	.	4d	.
.	.	.	.	.	4e	4e	.
.	.	.	.	2.B-	1d	1f	.
.	.	.	.	.	.	.	2b-
.	.	.	.	4A	.	.	.
=40	=40	=40	=40	=40	=40	=40	=40
0r	1r	0r	0r	1G	4B-	1g	1b-
.	.	.	.	.	4c	.	.
.	.	.	.	.	4d	.	.
.	.	.	.	.	4e	.	.
.	2r	.	.	1F	4f	2c	2.a
.	.	.	.	.	4g	.	.
.	[2c	.	.	.	2a	[2f	.
.	.	.	.	.	.	.	4b-
=41	=41	=41	=41	=41	=41	=41	=41
1r	2c]	1r	2r	1C	1g	2f]	1cc
.	2c	.	1cc	.	.	2e	.
[1F	2.c	[1a	.	1r	1f	[1f	[1a
.	.	.	2cc	.	.	.	.
.	4B-	.	.	.	.	.	.
=42	=42	=42	=42	=42	=42	=42	=42
2F]	2.A	2a]	2.cc	1.F	2r	1f]	1a]
2F	.	2a	.	.	1c	.	.
.	4B-	.	4b-	.	.	.	.
2.F	2c	[1f	2a	.	.	2r	2r
.	2A	.	2a	2F	2c	[2a	[2ff
4E	.	.	.	.	.	.	.
=43	=43	=43	=43	=43	=43	=43	=43
1.D	0d	2f]	2f	2.F	1.f	2a]	2ff]
.	.	2d	1ff	.	.	2f	2ff
.	.	.	.	4E	.	.	.
.	.	2.f	.	[1D	.	2a	2.ff
2D	.	.	2ff	.	2d	2b-	.
.	.	4g	.	.	.	.	4ee
=44	=44	=44	=44	=44	=44	=44	=44
0D	[0A	0a	2.ff	2D]	4f	2a	2dd
.	.	.	.	.	4e	.	.
.	.	.	.	2D	4d	2.f	1ff
.	.	.	4ee	.	4c	.	.
.	.	.	2dd	2F	1d	.	.
.	.	.	.	.	.	4g	.
.	.	.	2dd	2D	.	2a	2ff
=45	=45	=45	=45	=45	=45	=45	=45
1AA	1A]	1a	1cc#	2A	1e	2r	2ee
.	.	.	.	2A	.	2a	2ee
1r	1r	1r	1r	[1d	4d	4a	2ff
.	.	.	.	.	4e	4g	.
.	.	.	.	.	4f	4f	2dd
.	.	.	.	.	4g	4e	.
=46	=46	=46	=46	=46	=46	=46	=46
0r	0r	0r	0r	2d]	2a	2d	2ff
.	.	.	.	2c	2e	2g	2.ee
.	.	.	.	2B-	2f	1b-	.
.	.	.	.	.	.	.	4dd
.	.	.	.	2G	2g	.	[2dd
=47	=47	=47	=47	=47	=47	=47	=47
1r	1r	2r	1r	1A	1e	0a	2dd]
.	.	2a	.	.	.	.	2cc#
1D	1A	4a	2r	1d	1d	.	1dd
.	.	4g	.	.	.	.	.
.	.	4f	2dd	.	.	.	.
.	.	4e	.	.	.	.	.
=48	=48	=48	=48	=48	=48	=48	=48
1.G	2.B-	2d	4dd	0r	0r	0r	0r
.	.	.	4cc	.	.	.	.
.	.	2g	4b-	.	.	.	.
.	4c	.	4a	.	.	.	.
.	2d	2b-	2g	.	.	.	.
2F	2A	[2a	2cc	.	.	.	.
=49	=49	=49	=49	=49	=49	=49	=49
2E-	2B-	4a]	1ee-	1r	1r	1r	1r
.	.	4g	.	.	.	.	.
2C	2c	1g	.	.	.	.	.
1D	1A	.	[1dd	1D	2d	1a	2r
.	.	2f#	.	.	4d	.	2dd
.	.	.	.	.	4c	.	.
=50	=50	=50	=50	=50	=50	=50	=50
0r	1G	1g	1dd]	1.G	4B-	2b-	4dd
.	.	.	.	.	4A	.	4cc
.	.	.	.	.	2G	2b-	4b-
.	.	.	.	.	.	.	4a
.	1r	1r	1r	.	2d	2b-	2g
.	.	.	.	2F	2A	[2a	2cc
=51	=51	=51	=51	=51	=51	=51	=51
0r	1r	0r	1r	2E-	2B-	4a]	1ee-
.	.	.	.	.	.	4g	.
.	.	.	.	2C	2c	1g	.
.	2r	.	2r	1D	[1A	.	1dd
.	2d	.	2a	.	.	4f	.
.	.	.	.	.	.	4e	.
=52	=52	=52	=52	=52	=52	=52	=52
1D	2.d	2r	4a	0D	0A]	2.f	0dd
.	.	.	4g	.	.	.	.
.	.	2a	4f	.	.	.	.
.	4e	.	4e	.	.	4g	.
[1d	4f	4a	2d	.	.	1a	.
.	4g	4g	.	.	.	.	.
.	[2a	4f	2dd	.	.	.	.
.	.	4e	.	.	.	.	.
=53	=53	=53	=53	=53	=53	=53	=53
2d]	2a]	2d	2ff	0r	0r	0r	0r
2c	2e	2g	2.ee	.	.	.	.
2B-	2f	1b-	.	.	.	.	.
.	.	.	4dd	.	.	.	.
2G	2g	.	[2dd	.	.	.	.
=54	=54	=54	=54	=54	=54	=54	=54
1A	1e	1a	2dd]	0A	1r	1r	2r
.	.	.	2cc#	.	.	.	2a
[1D	[1d	2.f	[1dd	.	2a	2r	4a
.	.	.	.	.	.	.	4g
.	.	.	.	.	4a	2a	4f
.	.	4g	.	.	4g	.	4e
=55	=55	=55	=55	=55	=55	=55	=55
1D]	1d]	1a	1dd]	1.d	4f	4a	2d
.	.	.	.	.	4e	4g	.
.	.	.	.	.	2d	4f	2dd
.	.	.	.	.	.	4e	.
1r	1r	1r	1r	.	2a	2d	2ff
.	.	.	.	2c	2e	2g	[2ee
=56	=56	=56	=56	=56	=56	=56	=56
0r	1r	1r	0r	2B-	2f	1b-	4ee]
.	.	.	.	.	.	.	4dd
.	.	.	.	2G	2g	.	1dd
.	2a	2r	.	1A	1e	[1a	.
.	4a	2a	.	.	.	.	2cc#
.	4g	.	.	.	.	.	.
=57	=57	=57	=57	=57	=57	=57	=57
1D	4f	4a	2r	2.d	[0d	1a]	0dd
.	4e	4g	.	.	.	.	.
.	1d	4f	2dd	.	.	.	.
.	.	4e	.	4c	.	.	.
[1G	.	2d	4dd	4B-	.	2.g	.
.	.	.	4cc	4A	.	.	.
.	2d	2g	4b-	[2G	.	.	.
.	.	.	4a	.	.	4f	.
=58	=58	=58	=58	=58	=58	=58	=58
2G]	2.d	2b-	2g	2G]	1d_	2g	2r
2F#	.	2a	2a	2D	.	2a	2dd
.	4c	.	.	.	.	.	.
[1G	2B-	[1g	2.b-	2.G	1d_	2r	4dd
.	.	.	.	.	.	.	4cc
.	[2G	.	.	.	.	2d	4b-
.	.	.	4cc	4A	.	.	4a
=59	=59	=59	=59	=59	=59	=59	=59
1G]	4G]	0g]	0dd	2B-	0d]	4d	1g
.	4A	.	.	.	.	4c	.
.	4B-	.	.	2.G	.	4B-	.
.	4c	.	.	.	.	4A	.
1G	2d	.	.	.	.	2G	1b-
.	.	.	.	4A	.	.	.
.	2G	.	.	4B-	.	[2d	.
.	.	.	.	4c	.	.	.
=60	=60	=60	=60	=60	=60	=60	=60
[0D	[0A	[0f#	[0dd	1d	[0d	2d]	[0a
.	.	.	.	.	.	4c	.
.	.	.	.	.	.	4B-	.
.	.	.	.	1D	.	1A	.
=61	=61	=61	=61	=61	=61	=61	=61
0D]	0A]	0f#]	0dd]	0D	0d]	0A	0a]
==	==	==	==	==	==	==	==
*-	*-	*-	*-	*-	*-	*-	*-
!!!CDT: 1525/^1526/-1594/2/2
!!!OCY: Italia
!!!AGN: Mass (Parody)
!!!AST: renaissance, vocal
!!!ASW: Motet 1572 (Palestrina)
!!!PWK: Masses, Book 8vce
!!!RNB: Cadence finals: D,Bb
!!!YOR: Le Opere Complete, v. 30, p. 163
!!!YOO: Rome, Italy: Fratelli Scalera
!!!END: 1992//
!!!EED: John Miller
!!!YEC: Copyright 2000, John Miller
!!!YEN: United States of America
!!!YEM: Rights to all derivative electronic formats reserved.
!!!YEM: Refer to licensing agreement for further details.
!!!YEM: This file must be accompanied by the licensing agreement.
!!!YEM: A copy of the licensing agreement may be found at http://www.music-cog.ohio-state.edu/HumdrumDatabases/Palestrina/license.txt
!!!EMD: converted to Humdrum by Bret Aarden
